X: 97
T: Sweet Sixteen On Sunday
B: canberra pickers and fiddlers
B: old time tunes update
B: tunes
M:C|
L:1/8
R: Air
Q: 1/4=100
K:F
V:1 
F2E2_E2|D2D4A2|d2^cd -d^cd2|=B2AB- Bd B2|G6A=B|
c2=Bc- cBcB|c2 c6|F2 FG-G2-^G2|A2F2E2_E2|
D2D3d d2|d2 d4 d2|=B2AB- Bd B2|G6A=B|
c2=Bc- cBcB|c2=Bc- cC2 C|C2C2D2E2|F8||
% abcbook-tune_id 67a7d9ec154011ded1e23261
% abcbook-tune_composer_id 
% abcbook-link-0 https://www.youtube.com/watch?v=f7dA6RpoiJQ
% abcbook-link-title-0 Sweet Sixteen on Sunday
% abcbook-boost 0
% abcbook-difficulty 0
% abcbook-tags old time tunes
% abcbook-tablature 
% abcbook-transpose 
% abcbook-tuning AEAC#
% abcbook-lastupdated 1739242101607
% abcbook-src-url 
% abcbook-soundfonts 
% abcbook-repeats 1


